images/606171.svg

<?xml version="1.0" encoding="UTF-8"?>
<svg xmlns="http://www.w3.org/2000/svg" xmlns:xlink="http://www.w3.org/1999/xlink" width="300pt" height="300pt" viewBox="0 0 300 300" version="1.1">
<defs>
<g>
<symbol overflow="visible" id="glyph0-0">
<path style="stroke:none;" d="M 0.453125 1.59375 L 0.453125 -6.34375 L 4.953125 -6.34375 L 4.953125 1.59375 Z M 0.953125 1.09375 L 4.453125 1.09375 L 4.453125 -5.84375 L 0.953125 -5.84375 Z M 0.953125 1.09375 "/>
</symbol>
<symbol overflow="visible" id="glyph0-1">
<path style="stroke:none;" d="M 3.546875 -5.953125 C 2.898438 -5.953125 2.382812 -5.710938 2 -5.234375 C 1.625 -4.753906 1.4375 -4.101562 1.4375 -3.28125 C 1.4375 -2.445312 1.625 -1.789062 2 -1.3125 C 2.382812 -0.832031 2.898438 -0.59375 3.546875 -0.59375 C 4.191406 -0.59375 4.703125 -0.832031 5.078125 -1.3125 C 5.453125 -1.789062 5.640625 -2.445312 5.640625 -3.28125 C 5.640625 -4.101562 5.453125 -4.753906 5.078125 -5.234375 C 4.703125 -5.710938 4.191406 -5.953125 3.546875 -5.953125 Z M 3.546875 -6.6875 C 4.460938 -6.6875 5.195312 -6.375 5.75 -5.75 C 6.300781 -5.132812 6.578125 -4.3125 6.578125 -3.28125 C 6.578125 -2.238281 6.300781 -1.410156 5.75 -0.796875 C 5.195312 -0.179688 4.460938 0.125 3.546875 0.125 C 2.617188 0.125 1.878906 -0.179688 1.328125 -0.796875 C 0.773438 -1.410156 0.5 -2.238281 0.5 -3.28125 C 0.5 -4.3125 0.773438 -5.132812 1.328125 -5.75 C 1.878906 -6.375 2.617188 -6.6875 3.546875 -6.6875 Z M 3.546875 -6.6875 "/>
</symbol>
</g>
</defs>
<g id="surface34741">
<rect x="0" y="0" width="300" height="300" style="fill:rgb(100%,100%,100%);fill-opacity:1;stroke:none;"/>
<path style="fill:none;stroke-width:1.2;stroke-linecap:butt;stroke-linejoin:miter;stroke:rgb(0%,0%,0%);stroke-opacity:1;stroke-miterlimit:10;" d="M 35.367188 155.378906 L 52.4375 140.9375 "/>
<path style="fill:none;stroke-width:1.2;stroke-linecap:butt;stroke-linejoin:miter;stroke:rgb(0%,0%,0%);stroke-opacity:1;stroke-miterlimit:10;" d="M 52.4375 140.9375 L 63.535156 121.53125 "/>
<path style="fill:none;stroke-width:1.2;stroke-linecap:butt;stroke-linejoin:miter;stroke:rgb(0%,0%,0%);stroke-opacity:1;stroke-miterlimit:10;" d="M 52.4375 140.9375 L 35.25 126.636719 "/>
<path style="fill:none;stroke-width:1.2;stroke-linecap:butt;stroke-linejoin:miter;stroke:rgb(100%,0%,0%);stroke-opacity:1;stroke-miterlimit:10;" d="M 63.695312 160.253906 L 58.066406 150.597656 "/>
<path style="fill:none;stroke-width:1.2;stroke-linecap:butt;stroke-linejoin:miter;stroke:rgb(0%,0%,0%);stroke-opacity:1;stroke-miterlimit:10;" d="M 58.066406 150.597656 L 52.4375 140.9375 "/>
<path style="fill:none;stroke-width:1.2;stroke-linecap:butt;stroke-linejoin:miter;stroke:rgb(0%,0%,0%);stroke-opacity:1;stroke-miterlimit:10;" d="M 63.535156 121.53125 L 85.890625 121.4375 "/>
<path style="fill:none;stroke-width:1.2;stroke-linecap:butt;stroke-linejoin:miter;stroke:rgb(0%,0%,0%);stroke-opacity:1;stroke-miterlimit:10;" d="M 65.792969 126.78125 L 83.679688 126.710938 "/>
<path style="fill:none;stroke-width:1.2;stroke-linecap:butt;stroke-linejoin:miter;stroke:rgb(0%,0%,0%);stroke-opacity:1;stroke-miterlimit:10;" d="M 85.890625 121.4375 L 97.148438 140.753906 "/>
<path style="fill:none;stroke-width:1.2;stroke-linecap:butt;stroke-linejoin:miter;stroke:rgb(0%,0%,0%);stroke-opacity:1;stroke-miterlimit:10;" d="M 97.148438 140.753906 L 86.050781 160.164062 "/>
<path style="fill:none;stroke-width:1.2;stroke-linecap:butt;stroke-linejoin:miter;stroke:rgb(0%,0%,0%);stroke-opacity:1;stroke-miterlimit:10;" d="M 100.605469 145.308594 L 91.726562 160.835938 "/>
<path style="fill:none;stroke-width:1.2;stroke-linecap:butt;stroke-linejoin:miter;stroke:rgb(0%,0%,0%);stroke-opacity:1;stroke-miterlimit:10;" d="M 119.507812 140.664062 L 97.148438 140.753906 "/>
<path style="fill:none;stroke-width:1.2;stroke-linecap:butt;stroke-linejoin:miter;stroke:rgb(0%,0%,0%);stroke-opacity:1;stroke-miterlimit:10;" d="M 86.050781 160.164062 L 74.871094 160.210938 "/>
<path style="fill:none;stroke-width:1.2;stroke-linecap:butt;stroke-linejoin:miter;stroke:rgb(100%,0%,0%);stroke-opacity:1;stroke-miterlimit:10;" d="M 74.871094 160.210938 L 63.695312 160.253906 "/>
<path style="fill:none;stroke-width:1.2;stroke-linecap:butt;stroke-linejoin:miter;stroke:rgb(0%,0%,0%);stroke-opacity:1;stroke-miterlimit:10;" d="M 86.050781 160.164062 L 97.308594 179.480469 "/>
<path style=" stroke:none;fill-rule:nonzero;fill:rgb(100%,100%,100%);fill-opacity:1;" d="M 59.695312 154.753906 L 67.695312 154.753906 L 67.695312 165.753906 L 59.695312 165.753906 Z M 59.695312 154.753906 "/>
<g style="fill:rgb(100%,0%,0%);fill-opacity:1;">
  <use xlink:href="#glyph0-1" x="59.695312" y="163.416992"/>
</g>
<path style="fill:none;stroke-width:1.2;stroke-linecap:butt;stroke-linejoin:miter;stroke:rgb(0%,0%,0%);stroke-opacity:1;stroke-miterlimit:10;" d="M 97.308594 179.480469 L 119.667969 179.386719 "/>
<path style="fill:none;stroke-width:1.2;stroke-linecap:butt;stroke-linejoin:miter;stroke:rgb(0%,0%,0%);stroke-opacity:1;stroke-miterlimit:10;" d="M 99.523438 174.210938 L 117.410156 174.136719 "/>
<path style="fill:none;stroke-width:1.2;stroke-linecap:butt;stroke-linejoin:miter;stroke:rgb(0%,0%,0%);stroke-opacity:1;stroke-miterlimit:10;" d="M 119.667969 179.386719 L 130.765625 159.980469 "/>
<path style="fill:none;stroke-width:1.2;stroke-linecap:butt;stroke-linejoin:miter;stroke:rgb(0%,0%,0%);stroke-opacity:1;stroke-miterlimit:10;" d="M 130.765625 159.980469 L 119.507812 140.664062 "/>
<path style="fill:none;stroke-width:1.2;stroke-linecap:butt;stroke-linejoin:miter;stroke:rgb(0%,0%,0%);stroke-opacity:1;stroke-miterlimit:10;" d="M 134.183594 155.398438 L 125.179688 139.945312 "/>
<path style="fill:none;stroke-width:1.2;stroke-linecap:butt;stroke-linejoin:miter;stroke:rgb(0%,0%,0%);stroke-opacity:1;stroke-miterlimit:10;" d="M 153.121094 159.886719 L 130.765625 159.980469 "/>
<path style="fill:none;stroke-width:1.2;stroke-linecap:butt;stroke-linejoin:miter;stroke:rgb(0%,0%,0%);stroke-opacity:1;stroke-miterlimit:10;" d="M 119.507812 140.664062 L 125.058594 130.960938 "/>
<path style="fill:none;stroke-width:1.2;stroke-linecap:butt;stroke-linejoin:miter;stroke:rgb(100%,0%,0%);stroke-opacity:1;stroke-miterlimit:10;" d="M 125.058594 130.960938 L 130.605469 121.253906 "/>
<path style="fill:none;stroke-width:1.2;stroke-linecap:butt;stroke-linejoin:miter;stroke:rgb(100%,0%,0%);stroke-opacity:1;stroke-miterlimit:10;" d="M 130.605469 121.253906 L 141.785156 121.210938 "/>
<path style="fill:none;stroke-width:1.2;stroke-linecap:butt;stroke-linejoin:miter;stroke:rgb(0%,0%,0%);stroke-opacity:1;stroke-miterlimit:10;" d="M 141.785156 121.210938 L 152.964844 121.164062 "/>
<path style=" stroke:none;fill-rule:nonzero;fill:rgb(100%,100%,100%);fill-opacity:1;" d="M 126.605469 115.753906 L 134.605469 115.753906 L 134.605469 126.753906 L 126.605469 126.753906 Z M 126.605469 115.753906 "/>
<g style="fill:rgb(100%,0%,0%);fill-opacity:1;">
  <use xlink:href="#glyph0-1" x="126.605469" y="124.416992"/>
</g>
<path style="fill:none;stroke-width:1.2;stroke-linecap:butt;stroke-linejoin:miter;stroke:rgb(0%,0%,0%);stroke-opacity:1;stroke-miterlimit:10;" d="M 152.964844 121.164062 L 164.0625 101.757812 "/>
<path style="fill:none;stroke-width:1.2;stroke-linecap:butt;stroke-linejoin:miter;stroke:rgb(0%,0%,0%);stroke-opacity:1;stroke-miterlimit:10;" d="M 164.222656 140.480469 L 152.964844 121.164062 "/>
<path style="fill:none;stroke-width:1.2;stroke-linecap:butt;stroke-linejoin:miter;stroke:rgb(0%,0%,0%);stroke-opacity:1;stroke-miterlimit:10;" d="M 164.0625 101.757812 L 175.242188 101.710938 "/>
<path style="fill:none;stroke-width:1.2;stroke-linecap:butt;stroke-linejoin:miter;stroke:rgb(100%,0%,0%);stroke-opacity:1;stroke-miterlimit:10;" d="M 175.242188 101.710938 L 186.421875 101.664062 "/>
<path style="fill:none;stroke-width:1.2;stroke-linecap:butt;stroke-linejoin:miter;stroke:rgb(100%,0%,0%);stroke-opacity:1;stroke-miterlimit:10;" d="M 186.421875 101.664062 L 192.050781 111.320312 "/>
<path style="fill:none;stroke-width:1.2;stroke-linecap:butt;stroke-linejoin:miter;stroke:rgb(0%,0%,0%);stroke-opacity:1;stroke-miterlimit:10;" d="M 192.050781 111.320312 L 197.679688 120.980469 "/>
<path style=" stroke:none;fill-rule:nonzero;fill:rgb(100%,100%,100%);fill-opacity:1;" d="M 182.421875 96.164062 L 190.421875 96.164062 L 190.421875 107.164062 L 182.421875 107.164062 Z M 182.421875 96.164062 "/>
<g style="fill:rgb(100%,0%,0%);fill-opacity:1;">
  <use xlink:href="#glyph0-1" x="182.421875" y="104.827148"/>
</g>
<path style="fill:none;stroke-width:1.2;stroke-linecap:butt;stroke-linejoin:miter;stroke:rgb(0%,0%,0%);stroke-opacity:1;stroke-miterlimit:10;" d="M 197.679688 120.980469 L 220.035156 120.886719 "/>
<path style="fill:none;stroke-width:1.2;stroke-linecap:butt;stroke-linejoin:miter;stroke:rgb(0%,0%,0%);stroke-opacity:1;stroke-miterlimit:10;" d="M 199.9375 126.230469 L 217.820312 126.15625 "/>
<path style="fill:none;stroke-width:1.2;stroke-linecap:butt;stroke-linejoin:miter;stroke:rgb(0%,0%,0%);stroke-opacity:1;stroke-miterlimit:10;" d="M 186.578125 140.386719 L 197.679688 120.980469 "/>
<path style="fill:none;stroke-width:1.2;stroke-linecap:butt;stroke-linejoin:miter;stroke:rgb(0%,0%,0%);stroke-opacity:1;stroke-miterlimit:10;" d="M 220.035156 120.886719 L 231.292969 140.203125 "/>
<path style="fill:none;stroke-width:1.2;stroke-linecap:butt;stroke-linejoin:miter;stroke:rgb(0%,0%,0%);stroke-opacity:1;stroke-miterlimit:10;" d="M 231.292969 140.203125 L 220.195312 159.613281 "/>
<path style="fill:none;stroke-width:1.2;stroke-linecap:butt;stroke-linejoin:miter;stroke:rgb(0%,0%,0%);stroke-opacity:1;stroke-miterlimit:10;" d="M 225.617188 139.535156 L 216.738281 155.058594 "/>
<path style="fill:none;stroke-width:1.2;stroke-linecap:butt;stroke-linejoin:miter;stroke:rgb(0%,0%,0%);stroke-opacity:1;stroke-miterlimit:10;" d="M 231.292969 140.203125 L 242.472656 140.160156 "/>
<path style="fill:none;stroke-width:1.2;stroke-linecap:butt;stroke-linejoin:miter;stroke:rgb(100%,0%,0%);stroke-opacity:1;stroke-miterlimit:10;" d="M 242.472656 140.160156 L 253.652344 140.113281 "/>
<path style="fill:none;stroke-width:1.2;stroke-linecap:butt;stroke-linejoin:miter;stroke:rgb(0%,0%,0%);stroke-opacity:1;stroke-miterlimit:10;" d="M 220.195312 159.613281 L 197.835938 159.703125 "/>
<path style="fill:none;stroke-width:1.2;stroke-linecap:butt;stroke-linejoin:miter;stroke:rgb(0%,0%,0%);stroke-opacity:1;stroke-miterlimit:10;" d="M 220.195312 159.613281 L 225.824219 169.269531 "/>
<path style="fill:none;stroke-width:1.2;stroke-linecap:butt;stroke-linejoin:miter;stroke:rgb(100%,0%,0%);stroke-opacity:1;stroke-miterlimit:10;" d="M 225.824219 169.269531 L 231.453125 178.929688 "/>
<path style="fill:none;stroke-width:1.2;stroke-linecap:butt;stroke-linejoin:miter;stroke:rgb(0%,0%,0%);stroke-opacity:1;stroke-miterlimit:10;" d="M 197.835938 159.703125 L 186.578125 140.386719 "/>
<path style="fill:none;stroke-width:1.2;stroke-linecap:butt;stroke-linejoin:miter;stroke:rgb(0%,0%,0%);stroke-opacity:1;stroke-miterlimit:10;" d="M 201.257812 155.125 L 192.25 139.671875 "/>
<path style="fill:none;stroke-width:1.2;stroke-linecap:butt;stroke-linejoin:miter;stroke:rgb(0%,0%,0%);stroke-opacity:1;stroke-miterlimit:10;" d="M 186.578125 140.386719 L 164.222656 140.480469 "/>
<path style="fill:none;stroke-width:1.2;stroke-linecap:butt;stroke-linejoin:miter;stroke:rgb(0%,0%,0%);stroke-opacity:1;stroke-miterlimit:10;" d="M 164.222656 140.480469 L 153.121094 159.886719 "/>
<path style="fill:none;stroke-width:1.2;stroke-linecap:butt;stroke-linejoin:miter;stroke:rgb(0%,0%,0%);stroke-opacity:1;stroke-miterlimit:10;" d="M 150.851562 161.210938 L 156.480469 170.871094 "/>
<path style="fill:none;stroke-width:1.2;stroke-linecap:butt;stroke-linejoin:miter;stroke:rgb(100%,0%,0%);stroke-opacity:1;stroke-miterlimit:10;" d="M 156.480469 170.871094 L 162.109375 180.527344 "/>
<path style="fill:none;stroke-width:1.2;stroke-linecap:butt;stroke-linejoin:miter;stroke:rgb(0%,0%,0%);stroke-opacity:1;stroke-miterlimit:10;" d="M 155.394531 158.5625 L 161.023438 168.222656 "/>
<path style="fill:none;stroke-width:1.2;stroke-linecap:butt;stroke-linejoin:miter;stroke:rgb(100%,0%,0%);stroke-opacity:1;stroke-miterlimit:10;" d="M 161.023438 168.222656 L 166.652344 177.878906 "/>
<path style=" stroke:none;fill-rule:nonzero;fill:rgb(100%,100%,100%);fill-opacity:1;" d="M 160.382812 173.703125 L 168.382812 173.703125 L 168.382812 184.703125 L 160.382812 184.703125 Z M 160.382812 173.703125 "/>
<g style="fill:rgb(100%,0%,0%);fill-opacity:1;">
  <use xlink:href="#glyph0-1" x="160.382812" y="182.366211"/>
</g>
<path style="fill:none;stroke-width:1.2;stroke-linecap:butt;stroke-linejoin:miter;stroke:rgb(100%,0%,0%);stroke-opacity:1;stroke-miterlimit:10;" d="M 231.453125 178.929688 L 225.902344 188.632812 "/>
<path style="fill:none;stroke-width:1.2;stroke-linecap:butt;stroke-linejoin:miter;stroke:rgb(0%,0%,0%);stroke-opacity:1;stroke-miterlimit:10;" d="M 225.902344 188.632812 L 220.355469 198.335938 "/>
<path style=" stroke:none;fill-rule:nonzero;fill:rgb(100%,100%,100%);fill-opacity:1;" d="M 227.453125 173.429688 L 235.453125 173.429688 L 235.453125 184.429688 L 227.453125 184.429688 Z M 227.453125 173.429688 "/>
<g style="fill:rgb(100%,0%,0%);fill-opacity:1;">
  <use xlink:href="#glyph0-1" x="227.453125" y="182.092773"/>
</g>
<path style="fill:none;stroke-width:1.2;stroke-linecap:butt;stroke-linejoin:miter;stroke:rgb(100%,0%,0%);stroke-opacity:1;stroke-miterlimit:10;" d="M 253.652344 140.113281 L 259.199219 130.410156 "/>
<path style="fill:none;stroke-width:1.2;stroke-linecap:butt;stroke-linejoin:miter;stroke:rgb(0%,0%,0%);stroke-opacity:1;stroke-miterlimit:10;" d="M 259.199219 130.410156 L 264.75 120.703125 "/>
<path style=" stroke:none;fill-rule:nonzero;fill:rgb(100%,100%,100%);fill-opacity:1;" d="M 249.652344 134.613281 L 257.652344 134.613281 L 257.652344 145.613281 L 249.652344 145.613281 Z M 249.652344 134.613281 "/>
<g style="fill:rgb(100%,0%,0%);fill-opacity:1;">
  <use xlink:href="#glyph0-1" x="249.652344" y="143.276367"/>
</g>
</g>
</svg>

<svg xmlns="http://www.w3.org/2000/svg" xmlns:xlink="http://www.w3.org/1999/xlink" width="300pt" height="300pt" viewBox="0 0 300 300"><defs><symbol overflow="visible"><path d="M.453 1.594v-7.938h4.5v7.938zm.5-.5h3.5v-6.938h-3.5zm0 0"/></symbol><symbol overflow="visible" id="a"><path d="M3.547-5.953c-.65 0-1.164.242-1.547.72-.375.48-.563 1.13-.563 1.952 0 .835.188 1.49.563 1.967.383.48.898.72 1.547.72.644 0 1.156-.24 1.53-.72.376-.476.564-1.132.564-1.968 0-.822-.187-1.474-.562-1.954-.375-.477-.887-.72-1.53-.72zm0-.734c.914 0 1.648.312 2.203.937.55.617.828 1.438.828 2.47 0 1.042-.277 1.87-.828 2.483-.555.617-1.29.922-2.203.922-.93 0-1.668-.305-2.22-.922C.774-1.41.5-2.237.5-3.28c0-1.033.273-1.853.828-2.47.55-.625 1.29-.938 2.22-.938zm0 0"/></symbol></defs><g><path fill="#fff" d="M0 0h300v300H0z"/><path d="M35.367 155.38l17.07-14.442M52.438 140.938l11.097-19.407M52.438 140.938l-17.188-14.3" stroke-width="1.2" stroke="#000" stroke-miterlimit="10" fill="none"/><path d="M63.695 160.254l-5.63-9.656" stroke-width="1.2" stroke="#f00" stroke-miterlimit="10" fill="none"/><path d="M58.066 150.598l-5.63-9.66M63.535 121.53l22.356-.093M65.793 126.78l17.887-.07M85.89 121.438l11.258 19.316M97.148 140.754l-11.097 19.41M100.605 145.31l-8.878 15.526M119.508 140.664l-22.36.09M86.05 160.164l-11.18.047" stroke-width="1.2" stroke="#000" stroke-miterlimit="10" fill="none"/><path d="M74.87 160.21l-11.175.044" stroke-width="1.2" stroke="#f00" stroke-miterlimit="10" fill="none"/><path d="M86.05 160.164l11.26 19.316" stroke-width="1.2" stroke="#000" stroke-miterlimit="10" fill="none"/><path d="M59.695 154.754h8v11h-8zm0 0" fill="#fff"/><use xlink:href="#a" x="59.695" y="163.417" fill="#f00"/><path d="M97.31 179.48l22.358-.093M99.523 174.21l17.887-.073M119.668 179.387l11.098-19.407M130.766 159.98l-11.258-19.316M134.184 155.398l-9.004-15.453M153.12 159.887l-22.354.093M119.508 140.664l5.55-9.703" stroke-width="1.2" stroke="#000" stroke-miterlimit="10" fill="none"/><path d="M125.06 130.96l5.545-9.706M130.605 121.254l11.18-.043" stroke-width="1.2" stroke="#f00" stroke-miterlimit="10" fill="none"/><path d="M141.785 121.21l11.18-.046" stroke-width="1.2" stroke="#000" stroke-miterlimit="10" fill="none"/><path d="M126.605 115.754h8v11h-8zm0 0" fill="#fff"/><use xlink:href="#a" x="126.605" y="124.417" fill="#f00"/><path d="M152.965 121.164l11.097-19.406M164.223 140.48l-11.258-19.316M164.063 101.758l11.18-.047" stroke-width="1.2" stroke="#000" stroke-miterlimit="10" fill="none"/><path d="M175.242 101.71l11.18-.046M186.422 101.664l5.63 9.656" stroke-width="1.2" stroke="#f00" stroke-miterlimit="10" fill="none"/><path d="M192.05 111.32l5.63 9.66" stroke-width="1.2" stroke="#000" stroke-miterlimit="10" fill="none"/><path d="M182.422 96.164h8v11h-8zm0 0" fill="#fff"/><use xlink:href="#a" x="182.422" y="104.827" fill="#f00"/><path d="M197.68 120.98l22.355-.093M199.938 126.23l17.882-.074M186.578 140.387l11.102-19.407M220.035 120.887l11.258 19.316M231.293 140.203l-11.098 19.41M225.617 139.535l-8.88 15.524M231.293 140.203l11.18-.043" stroke-width="1.2" stroke="#000" stroke-miterlimit="10" fill="none"/><path d="M242.473 140.16l11.18-.047" stroke-width="1.2" stroke="#f00" stroke-miterlimit="10" fill="none"/><path d="M220.195 159.613l-22.36.09M220.195 159.613l5.63 9.657" stroke-width="1.2" stroke="#000" stroke-miterlimit="10" fill="none"/><path d="M225.824 169.27l5.63 9.66" stroke-width="1.2" stroke="#f00" stroke-miterlimit="10" fill="none"/><path d="M197.836 159.703l-11.258-19.316M201.258 155.125l-9.008-15.453M186.578 140.387l-22.355.093M164.223 140.48l-11.102 19.407M150.852 161.21l5.628 9.66" stroke-width="1.2" stroke="#000" stroke-miterlimit="10" fill="none"/><path d="M156.48 170.87l5.63 9.657" stroke-width="1.2" stroke="#f00" stroke-miterlimit="10" fill="none"/><path d="M155.395 158.563l5.628 9.66" stroke-width="1.2" stroke="#000" stroke-miterlimit="10" fill="none"/><path d="M161.023 168.223l5.63 9.656" stroke-width="1.2" stroke="#f00" stroke-miterlimit="10" fill="none"/><path d="M160.383 173.703h8v11h-8zm0 0" fill="#fff"/><use xlink:href="#a" x="160.383" y="182.366" fill="#f00"/><path d="M231.453 178.93l-5.55 9.703" stroke-width="1.2" stroke="#f00" stroke-miterlimit="10" fill="none"/><path d="M225.902 188.633l-5.547 9.703" stroke-width="1.2" stroke="#000" stroke-miterlimit="10" fill="none"/><path d="M227.453 173.43h8v11h-8zm0 0" fill="#fff"/><use xlink:href="#a" x="227.453" y="182.093" fill="#f00"/><path d="M253.652 140.113l5.547-9.703" stroke-width="1.2" stroke="#f00" stroke-miterlimit="10" fill="none"/><path d="M259.2 130.41l5.55-9.707" stroke-width="1.2" stroke="#000" stroke-miterlimit="10" fill="none"/><path d="M249.652 134.613h8v11h-8zm0 0" fill="#fff"/><use xlink:href="#a" x="249.652" y="143.276" fill="#f00"/></g></svg>
